X:1
T: Captain Robertson Ludes
C:
R:Strathspey
Q: 128
K:D
M:4/4
L:1/16
|:F2|A,D3 D3E F3G A3B|A3B d3F GFED B,D3|A,D3 D3E F3G A3B|A3F E3F DDD2 D2F2|
A,D3 D3E F3G A3B|A3B d3F GFED B,D3|A,D3 D3E F3G A3B|A3F E3F DDD2 D2f2|
d3f a3f a3b a3f|e3d e3f dB3 B3d|d3f a3f a3b a3f|e3d e3f ddd2 d2f2|
d3f a3f a3b a3f|e3d e3f dB3 B3d|A3B d3e f3g a3f|e3d e3f ddd2 d2:|
